X: 1
T: The Rakes of Mallow (R-3)
I: Rakes of Mallow, The	R-3	G	reel
I: Marlow	R-3	G	reel
M: C|
R: polka
K: G
(3DEF| "G"G2B2 G2B2| G2B2 cBAG| "D"F2A2 F2A2| F2A2 dcBA|
       "G"G2B2 G2B2| G2B2 d3B| "C"cBAG "D7"FGAc| "G"B2G2 G2 :|
|:(3def| "G"g2fe d2c2| B2c2 d3B| g2fe d2c2| B2d2 "D"A3d|
       "G"g2fe d2c2| B2c2 d3B| "C"cBAG "D7"FGAc| "G"B2G2 G2 :|

